X: 18
T:Harvest Home, The
M:4/4
L:1/8
Q:120
R:Hornpipe
K:D
A>F|"D"D>AF>A D>AF>A|d>ef>e d>cB>A|"A"e>Af>A g>Af>A|(3efe (3dcB A>GF>E|!
"D"D>AF>A D>AF>A|d>ef>e d>cB>A|"A"e>Af>A g>ec>e|"D"d2f2d2::c>d|!
"A"e>A (3AAA f>A (3AAA|g>A (3AAA f>A (3AAA|
e>Af>A g>Af>A|(3efe (3dcB (3ABA (3GFE|!
"D"D>AF>A D>AF>A|d>ef>e d>cB>A|"A"e>Af>A g>ec>e|"D"d2f2d2:|
